<?xml version="1.0" encoding="UTF-8"?>
<map version="1.10" tiledversion="1.11.0" orientation="orthogonal" renderorder="right-down" width="50" height="9" tilewidth="16" tileheight="16" infinite="0" nextlayerid="4" nextobjectid="1">
  <tileset firstgid="1" source="spritesheet.tsx"/>
  <layer id="1" name="bg" width="50" height="9">
    <data encoding="csv">
0,0,0,0,0,0,0,0,0,0,0,0,0,0,0,0,0,0,0,0,0,0,0,0,0,0,0,0,0,0,0,0,0,0,0,0,0,0,0,0,0,0,0,0,0,0,0,0,0,0,
0,1,1,1,1,1,1,1,1,1,1,1,1,1,1,0,0,0,0,0,0,1,1,1,1,0,0,1,1,1,1,1,0,0,0,1,1,1,0,1,1,1,1,1,0,1,1,1,1,0,
0,1,1,1,1,1,1,1,1,1,1,1,1,1,1,0,0,0,0,1,1,1,0,0,0,0,0,1,1,1,1,1,0,0,0,1,1,1,1,1,0,0,0,1,0,1,1,1,1,0,
0,1,1,1,1,1,1,1,1,1,1,1,1,1,1,0,0,0,1,1,1,1,1,1,1,0,1,1,0,1,1,1,0,0,0,0,0,0,1,1,0,1,1,1,0,1,1,1,1,0,
0,1,1,1,1,1,1,1,1,1,1,1,1,1,1,0,0,0,2,0,0,0,0,0,1,1,1,1,0,1,1,1,0,0,0,1,1,1,1,1,0,1,0,1,1,1,0,0,1,0,
0,1,1,2,2,2,2,1,1,1,1,1,1,1,1,0,0,0,3,0,3,3,3,0,0,1,1,1,0,1,1,1,0,0,0,1,1,1,1,0,0,1,0,1,1,1,0,0,0,0,
0,1,1,1,1,1,1,1,1,1,1,2,2,2,2,0,0,0,3,3,3,3,3,0,1,1,1,2,0,2,2,0,0,0,0,3,2,2,2,0,0,2,2,2,2,0,0,0,0,0,
0,1,1,1,1,1,1,1,1,1,1,3,3,3,3,0,0,0,0,0,3,3,3,0,0,0,0,0,0,3,3,0,0,0,0,0,3,3,3,0,0,3,3,3,0,0,0,0,0,0,
0,0,0,0,0,0,0,0,0,0,0,0,0,0,0,0,0,0,0,0,0,0,0,0,0,0,0,0,0,0,0,0,0,0,0,0,0,0,0,0,0,0,0,0,0,0,0,0,0,0
    </data>
  </layer>
  <layer id="2" name="blocks" width="50" height="9">
    <data encoding="csv">
14,15,15,15,15,15,12,15,15,15,15,15,12,15,15,18,0,13,9,9,11,15,15,15,15,10,9,11,15,15,10,9,17,0,14,15,15,15,12,15,15,15,15,15,10,11,15,15,15,18,
28,0,0,0,0,0,28,0,0,0,0,0,28,0,0,28,0,25,31,24,26,0,0,0,0,25,31,26,0,0,43,24,41,0,28,0,0,0,44,0,0,0,0,0,25,23,0,0,0,28,
37,15,15,20,0,0,40,17,0,0,21,0,34,20,0,28,0,43,26,0,0,0,16,15,15,46,26,0,0,0,28,0,28,0,28,0,0,0,0,0,14,15,20,0,43,26,0,0,0,28,
28,0,0,0,0,0,27,45,20,0,0,0,0,0,0,28,0,28,0,0,0,0,0,0,0,44,0,0,19,0,44,0,28,0,40,11,15,20,0,0,28,0,0,0,44,0,0,0,0,28,
28,0,19,0,0,0,0,28,0,0,19,0,0,0,16,35,0,28,0,14,15,15,15,18,0,0,0,0,28,0,0,0,28,0,25,23,0,0,0,0,28,0,19,0,0,0,13,17,0,28,
28,0,28,0,0,0,0,28,0,0,28,0,0,0,0,28,0,28,0,44,0,0,0,40,17,0,0,0,28,0,0,13,38,0,25,23,0,0,13,9,38,0,44,0,0,0,25,30,9,38,
28,0,34,15,15,15,15,33,0,13,38,0,0,0,0,28,0,28,0,0,0,0,0,25,30,9,17,0,28,0,0,25,23,0,25,23,0,0,25,8,23,0,0,0,0,13,29,8,8,23,
28,0,0,0,0,0,0,0,0,25,23,0,0,0,0,28,0,40,9,17,0,0,0,25,8,8,30,9,38,0,0,25,23,0,25,23,0,0,25,8,23,0,0,0,13,29,8,8,8,23,
34,15,15,15,15,15,15,15,15,39,42,15,15,15,15,33,0,27,24,42,15,15,15,39,24,24,24,24,42,15,15,39,26,0,27,42,15,15,39,24,42,15,15,15,39,24,24,24,24,26
    </data>
  </layer>
  <layer id="3" name="sprites" width="50" height="9">
    <data encoding="csv">
0,0,0,0,0,0,0,0,0,0,0,0,0,0,0,0,0,0,0,0,0,0,0,0,0,0,0,0,0,0,0,0,0,0,0,0,0,0,0,0,0,0,0,0,0,0,0,0,0,0,
0,65,0,0,0,0,0,0,0,0,0,0,0,69,0,0,0,0,0,0,0,0,0,0,64,0,0,0,0,0,0,0,0,0,0,0,0,0,0,0,0,0,0,0,0,0,0,0,0,0,
0,0,0,0,0,0,0,0,0,0,0,0,0,0,0,0,0,0,0,0,0,0,0,0,0,0,0,0,0,0,0,70,0,0,0,65,0,64,0,0,0,0,0,0,0,0,0,69,0,0,
0,0,0,0,0,0,0,0,0,0,0,0,0,0,64,0,0,0,0,0,0,0,0,0,0,0,0,0,0,0,0,0,0,0,0,0,0,0,0,0,0,0,70,0,0,0,0,0,0,0,
0,0,0,0,0,0,0,0,0,0,0,0,0,0,0,0,0,0,0,0,0,0,0,0,0,0,0,0,0,0,0,0,0,0,0,0,0,0,0,0,0,0,0,0,0,0,0,0,0,0,
0,0,0,0,0,0,0,0,0,0,0,0,0,0,0,0,0,0,0,0,0,0,0,0,0,0,0,0,0,0,0,0,0,0,0,0,0,1,0,0,0,0,0,0,0,0,0,0,0,0,
0,0,0,0,0,0,0,0,0,0,0,0,0,0,0,0,0,0,0,0,0,69,0,0,0,0,0,0,0,0,0,0,0,0,0,0,0,0,0,0,0,0,0,0,0,0,0,0,0,0,
0,0,0,0,0,0,0,0,0,0,0,0,0,0,0,0,0,0,0,0,0,0,0,0,0,0,0,0,0,0,0,0,0,0,0,0,69,0,0,0,0,0,0,0,0,0,0,0,0,0,
0,0,0,0,0,0,0,0,0,0,0,0,0,0,0,0,0,0,0,0,0,0,0,0,0,0,0,0,0,0,0,0,0,0,0,0,0,0,0,0,0,0,0,0,0,0,0,0,0,0
    </data>
  </layer>
</map>